X:1
L:1/8
Q:3/8=120
M:9/8
K:C
 (e/d/) | cGG GGG cAA | cGG GGG f2 (e/d/) | cGG GGG cAA | BBc dfd c2 || e | d(e/f/)g GGc AFe | 
 de/f/g GGG f2 e | de/f/g GGc AFc | BAc dfd c2 |]
